icons/map-minus.svg

<svg
  xmlns="http://www.w3.org/2000/svg"
  width="24"
  height="24"
  viewBox="0 0 24 24"
  fill="none"
  stroke="currentColor"
  stroke-width="2"
  stroke-linecap="round"
  stroke-linejoin="round"
>
  <path d="m11 19-1.106-.552a2 2 0 0 0-1.788 0l-3.659 1.83A1 1 0 0 1 3 19.381V6.618a1 1 0 0 1 .553-.894l4.553-2.277a2 2 0 0 1 1.788 0l4.212 2.106a2 2 0 0 0 1.788 0l3.659-1.83A1 1 0 0 1 21 4.619V14" />
  <path d="M15 5.764V14" />
  <path d="M21 18h-6" />
  <path d="M9 3.236v15" />
</svg>

<svg
  xmlns="http://www.w3.org/2000/svg"
  width="24"
  height="24"
  viewBox="0 0 24 24"
  fill="none"
  stroke="currentColor"
  stroke-width="2"
  stroke-linecap="round"
  stroke-linejoin="round"
>
  <path d="M 11 19 L 9.894 18.448" />
  <path d="M 14.106 5.553 A2 2 0 0 0 15.894 5.553" />
  <path d="M 15 5.764 L 15 13.5" />
  <path d="M 15.894 5.553 L 19.553 3.723" />
  <path d="M 19.553 3.723 A1 1 0 0 1 21 4.619" />
  <path d="M 21 4.619 L 21 13.5" />
  <path d="M 3 19.381 L 3 6.618" />
  <path d="M 3 6.618 A1 1 0 0 1 3.553 5.724" />
  <path d="M 3.553 5.724 L 8.106 3.447" />
  <path d="M 4.447 20.278 A1 1 0 0 1 3 19.381" />
  <path d="M 8.106 18.448 L 4.447 20.278" />
  <path d="M 8.106 3.447 A2 2 0 0 1 9.894 3.447" />
  <path d="M 9.894 18.448 A2 2 0 0 0 8.106 18.448" />
  <path d="M 9.894 3.447 L 14.106 5.553" />
  <path d="M21 18h-6" />
  <path d="M9 3.236v15" />
</svg>
